X:1
%
T:Duke of Hamilton's Reel
M:C
L:1/8
R:Reel
S:Bremner - Scots Reels (c. 1757)
Z:AK/Fiddler's Companion
K:Gmix
B | G/G/G (B/c/d) TB2 Gc |TA2 Fc TA2 FA | G/G/G (B/c/d) TB2 Gc |
A^FcA G/G/G G :||: c | B(dd)(e/^f/ g)d B/c/d/B/ | =fc A/_B/c/A/ fc A/B/c/A/ |
=B(dd)e/^f/ g/f/e/d/ e/d/c/B/ | c/B/A/G/ ^FA G/G/G G :||

